src/icons_unused/hds/ui/clock-plus.svg

<svg xmlns="http://www.w3.org/2000/svg" width="24" height="24" viewBox="0 0 24 24">
  <g fill="none" fill-rule="evenodd">
    <rect width="24" height="24"/>
    <path fill="currentColor" d="M12,2 C17.5228475,2 22,6.4771525 22,12 C22,12.3378756 21.9832433,12.6718374 21.9505155,13.0010997 L19.9379871,13.0009551 C19.9789157,12.6730544 20,12.3389895 20,12 C20,7.581722 16.418278,4 12,4 C7.581722,4 4,7.581722 4,12 C4,16.418278 7.581722,20 12,20 C12.3389895,20 12.6730544,19.9789157 13.0009551,19.9379871 L13.0010997,21.9505155 C12.6718374,21.9832433 12.3378756,22 12,22 C6.4771525,22 2,17.5228475 2,12 C2,6.4771525 6.4771525,2 12,2 Z M19,14 L19,17 L22,17 L22,19 L19,19 L19,22 L17,22 L17,19 L14,19 L14,17 L17,17 L17,14 L19,14 Z M13,6 L12.9992525,12.4137864 L12.7053593,12.706 L12.7071068,12.7071068 L9.17157288,16.2426407 L7.75735931,14.8284271 L10.9993593,11.584 L11,6 L13,6 Z"/>
  </g>
</svg>

<svg viewBox="0 0 24 24" role="img" xmlns="http://www.w3.org/2000/svg"><g fill="none" fill-rule="evenodd"><path d="M0 0h24v24H0z"/><path d="M12 2c5.523 0 10 4.477 10 10 0 .338-.017.672-.05 1.001h-2.012a8 8 0 10-6.937 6.937v2.013c-.33.032-.663.049-1.001.049-5.523 0-10-4.477-10-10S6.477 2 12 2zm7 12v3h3v2h-3v3h-2v-3h-3v-2h3v-3h2zm-6-8v6.414l-.295.292.002.001-3.535 3.536-1.415-1.415L11 11.584 11 6h2z" fill="currentColor"/></g></svg>
